X: 28
M:4/4
L:1/8
K:G
|: ga|b2 g2 g2 b2| a2 f2 f2 a2| g2 e2 efge| f2 B4 ga| b2 g2 g2 b2| a2 g2 fgaf| g2 fe f2 e^d| e6:|

